images/登录/u540.svg

﻿<?xml version="1.0" encoding="utf-8"?>
<svg version="1.1" xmlns:xlink="http://www.w3.org/1999/xlink" width="15px" height="11px" xmlns="http://www.w3.org/2000/svg">
  <g transform="matrix(1 0 0 1 -2311 -1340 )">
    <path d="M 1.07142857142857 5.5  C 2.00334821428571 6.90773809523809  3.19475446428571 7.93080357142857  4.64564732142857 8.56919642857143  L 5.29854910714286 7.41517857142857  C 4.81305803571429 7.07142857142857  4.43359375 6.63764880952381  4.16015625 6.11383928571429  C 3.88671875 5.59002976190476  3.75 5.03621031746032  3.75 4.45238095238095  C 3.75 3.7921626984127  3.92020089285714 3.17832341269841  4.26060267857143 2.61086309523809  C 2.98270089285714 3.24925595238095  1.91964285714286 4.21230158730159  1.07142857142857 5.5  Z M 7.78459821428571 2.63541666666667  C 7.86272321428572 2.55902777777778  7.90178571428571 2.46626984126984  7.90178571428571 2.35714285714286  C 7.90178571428571 2.24801587301587  7.86272321428572 2.15525793650794  7.78459821428571 2.07886904761905  C 7.70647321428572 2.00248015873016  7.61160714285714 1.96428571428571  7.5 1.96428571428571  C 6.80245535714286 1.96428571428571  6.20396205357143 2.20845734126984  5.70452008928571 2.69680059523809  C 5.205078125 3.18514384920635  4.95535714285714 3.7703373015873  4.95535714285714 4.45238095238095  C 4.95535714285714 4.56150793650794  4.99441964285714 4.65426587301587  5.07254464285714 4.73065476190476  C 5.15066964285714 4.80704365079365  5.24553571428571 4.84523809523809  5.35714285714286 4.84523809523809  C 5.46875 4.84523809523809  5.56361607142857 4.80704365079365  5.64174107142857 4.73065476190476  C 5.71986607142857 4.65426587301587  5.75892857142857 4.56150793650794  5.75892857142857 4.45238095238095  C 5.75892857142857 3.98313492063492  5.92912946428571 3.58209325396825  6.26953125 3.24925595238095  C 6.60993303571429 2.91641865079365  7.02008928571429 2.75  7.5 2.75  C 7.61160714285714 2.75  7.70647321428572 2.71180555555555  7.78459821428571 2.63541666666667  Z M 10.8063616071429 0.572916666666667  C 10.8956473214286 0.627480158730158  10.9402901785714 0.701140873015872  10.9402901785714 0.79389880952381  C 10.9402901785714 0.832093253968253  10.9375 0.856646825396824  10.9319196428571 0.867559523809524  C 10.3404017857143 1.89880952380952  9.45870535714286 3.44568452380952  8.28683035714286 5.50818452380952  C 7.11495535714286 7.57068452380952  6.23604910714286 9.11483134920635  5.65011160714286 10.140625  L 5.23995535714286 10.8690476190476  C 5.18415178571429 10.9563492063492  5.10602678571429 11  5.00558035714286 11  C 4.93861607142857 11  4.56473214285714 10.8090277777778  3.88392857142857 10.4270833333333  C 3.79464285714286 10.3725198412698  3.75 10.296130952381  3.75 10.1979166666667  C 3.75 10.1324404761905  3.87276785714286 9.89508928571428  4.11830357142857 9.48586309523809  C 3.3203125 9.1312003968254  2.58510044642857 8.65922619047619  1.91266741071429 8.06994047619048  C 1.240234375 7.48065476190476  0.658482142857143 6.81225198412698  0.167410714285714 6.06473214285714  C 0.0558035714285714 5.89558531746032  0 5.70734126984127  0 5.5  C 0 5.29265873015873  0.0558035714285714 5.10441468253968  0.167410714285714 4.93526785714286  C 1.02120535714286 3.65302579365079  2.08147321428571 2.64087301587301  3.34821428571429 1.89880952380952  C 4.61495535714286 1.15674603174603  5.99888392857143 0.785714285714285  7.5 0.785714285714285  C 7.99665178571429 0.785714285714285  8.49888392857143 0.832093253968253  9.00669642857143 0.92485119047619  L 9.45870535714286 0.13095238095238  C 9.51450892857143 0.0436507936507935  9.59263392857143 0  9.69308035714286 0  C 9.72098214285714 0  9.77120535714286 0.0163690476190476  9.84375 0.0491071428571427  C 9.91629464285714 0.0818452380952378  10.0027901785714 0.124131944444443  10.1032366071429 0.175967261904762  C 10.2036830357143 0.227802579365079  10.2957589285714 0.27827380952381  10.3794642857143 0.327380952380952  C 10.4631696428571 0.376488095238095  10.5510602678571 0.426959325396824  10.6431361607143 0.478794642857143  C 10.7352120535714 0.530629960317459  10.7896205357143 0.562003968253967  10.8063616071429 0.572916666666667  Z M 11.1830357142857 3.76488095238095  C 11.2276785714286 4.01041666666667  11.25 4.23958333333333  11.25 4.45238095238095  C 11.25 5.21081349206349  11.0295758928571 5.90240575396825  10.5887276785714 6.52715773809524  C 10.1478794642857 7.15190972222222  9.56473214285714 7.60069444444444  8.83928571428572 7.87351190476191  L 11.1830357142857 3.76488095238095  Z M 14.8325892857143 4.93526785714286  C 14.9441964285714 5.12078373015873  15 5.30902777777778  15 5.5  C 15 5.69097222222222  14.9441964285714 5.87921626984127  14.8325892857143 6.06473214285714  C 14.6149553571429 6.41393849206349  14.3108258928571 6.80952380952381  13.9202008928571 7.25148809523809  C 13.0831473214286 8.18998015873016  12.1135602678571 8.91840277777778  11.0114397321429 9.43675595238095  C 9.90931919642857 9.95510912698413  8.73883928571428 10.2142857142857  7.5 10.2142857142857  L 8.11941964285714 9.13392857142857  C 9.30245535714286 9.03571428571428  10.3976004464286 8.66195436507936  11.4048549107143 8.01264880952381  C 12.412109375 7.36334325396825  13.2533482142857 6.52579365079365  13.9285714285714 5.5  C 13.2868303571429 4.52331349206349  12.5 3.72123015873016  11.5680803571429 3.09375  L 12.0954241071429 2.17708333333333  C 12.6255580357143 2.52628968253968  13.134765625 2.9437003968254  13.623046875 3.42931547619048  C 14.111328125 3.91493055555555  14.5145089285714 4.41691468253968  14.8325892857143 4.93526785714286  Z " fill-rule="nonzero" fill="#7f7f7f" stroke="none" transform="matrix(1 0 0 1 2311 1340 )" />
  </g>
</svg>

<svg xmlns="http://www.w3.org/2000/svg" width="15" height="11"><path fill="#7f7f7f" d="M1.071 5.5Q2.47 7.611 4.646 8.57l.653-1.155A3.64 3.64 0 0 1 4.16 6.114a3.54 3.54 0 0 1-.41-1.662q0-.99.51-1.841-1.915.957-3.189 2.889m6.714-2.865a.38.38 0 0 0 .117-.278q0-.164-.117-.278a.4.4 0 0 0-.285-.115q-1.047 0-1.795.733-.75.732-.75 1.755 0 .164.118.279a.4.4 0 0 0 .284.114.4.4 0 0 0 .285-.114.38.38 0 0 0 .117-.279q0-.703.51-1.203T7.5 2.75a.4.4 0 0 0 .285-.115M10.806.573q.134.082.134.22a.2.2 0 0 1-.008.075q-.887 1.546-2.645 4.64a2558 2558 0 0 1-2.637 4.633l-.41.728a.26.26 0 0 1-.234.131q-.1 0-1.122-.573a.26.26 0 0 1-.134-.23q0-.098.368-.711A8.7 8.7 0 0 1 1.913 8.07 9.8 9.8 0 0 1 .167 6.065 1 1 0 0 1 0 5.5q0-.311.167-.565Q1.447 3.012 3.348 1.9A8.07 8.07 0 0 1 7.5.786q.745 0 1.507.139L9.459.13A.26.26 0 0 1 9.693 0q.042 0 .15.05a6 6 0 0 1 .536.277q.126.075.264.152.139.078.163.094m.377 3.192q.067.368.067.687 0 1.138-.661 2.075a3.68 3.68 0 0 1-1.75 1.347zm3.65 1.17Q15 5.214 15 5.5q0 .287-.167.565-.327.524-.913 1.186a9 9 0 0 1-2.909 2.186 8.15 8.15 0 0 1-3.511.777l.62-1.08a7.05 7.05 0 0 0 3.285-1.121A8.5 8.5 0 0 0 13.929 5.5a8.5 8.5 0 0 0-2.36-2.406l.526-.917q.796.525 1.528 1.252.732.729 1.21 1.506"/></svg>
